third_party/noto/noto_2/emoji_u1f437.svg

<svg enable-background="new 0 0 128 128" viewBox="0 0 128 128" xmlns="http://www.w3.org/2000/svg"><linearGradient id="c" x1="64" x2="64" y1="118.5" y2="10.998" gradientUnits="userSpaceOnUse"><stop stop-color="#E08787" offset=".0011772"/><stop stop-color="#FFB5B5" offset=".4304"/></linearGradient><path d="M64,118.5c-34.16,0-53.75-16.8-53.75-46.08c0-15.35,5.12-30.64,14.06-41.97 C31.31,21.57,43.87,11,64,11s32.69,10.57,39.69,19.45c8.94,11.33,14.06,26.63,14.06,41.97C117.75,101.7,98.16,118.5,64,118.5z" fill="url(#c)"/><path d="M64,12.5c19.53,0,31.72,10.26,38.51,18.87c8.73,11.07,13.74,26.03,13.74,41.04 c0,14.19-4.56,25.28-13.56,32.95C93.77,112.98,80.39,117,64,117s-29.77-4.02-38.69-11.63c-9-7.67-13.56-18.76-13.56-32.95 c0-15.02,5.01-29.98,13.74-41.04C32.28,22.76,44.47,12.5,64,12.5 M64,9.5C28.69,9.5,8.75,41.9,8.75,72.42S29.31,120,64,120 s55.25-17.07,55.25-47.58S99.31,9.5,64,9.5L64,9.5z" fill="#ED7E7E"/><g fill="#404040"><ellipse cx="33.28" cy="59.62" rx="9.18" ry="10.39"/><ellipse cx="94.72" cy="59.62" rx="9.18" ry="10.39"/></g><path d="M64,64.84c-12.77,0-23.11,11.74-23.11,22.99S51.23,105.58,64,105.58s23.11-6.5,23.11-17.75 S76.77,64.84,64,64.84z" fill="#EB7070"/><g fill="#404040"><path d="m61.15 87.34c0.02-0.19 0.03-0.37 0.03-0.54s-0.01-0.35-0.03-0.54c-0.13-4.93-1.92-7.82-4.2-8.18-0.16-0.05-0.33-0.08-0.5-0.08s-0.33 0.03-0.5 0.08c-2.28 0.37-4.07 3.25-4.2 8.18-0.02 0.19-0.03 0.37-0.03 0.54s0.01 0.35 0.03 0.54c0.13 4.93 1.92 7.82 4.2 8.18 0.16 0.05 0.33 0.08 0.5 0.08s0.33-0.03 0.5-0.08c2.28-0.37 4.07-3.25 4.2-8.18z"/><path d="m76.24 87.34c0.02-0.19 0.03-0.37 0.03-0.54s-0.01-0.35-0.03-0.54c-0.13-4.93-1.92-7.82-4.2-8.18-0.16-0.05-0.33-0.08-0.5-0.08s-0.33 0.03-0.5 0.08c-2.28 0.37-4.07 3.25-4.2 8.18-0.02 0.19-0.03 0.37-0.03 0.54s0.01 0.35 0.03 0.54c0.13 4.93 1.92 7.82 4.2 8.18 0.16 0.05 0.33 0.08 0.5 0.08s0.33-0.03 0.5-0.08c2.28-0.37 4.07-3.25 4.2-8.18z"/></g><linearGradient id="b" x1="-334.83" x2="-334.83" y1="57.052" y2="-34.285" gradientTransform="matrix(-1 0 0 1 -229.92 0)" gradientUnits="userSpaceOnUse"><stop stop-color="#f99" offset="0"/><stop stop-color="#FFB5B5" offset=".4304"/></linearGradient><path d="m122.18 44.64c-19.31-0.69-33.82-14.73-34.54-33.42 1.29-0.01 3.72-0.02 8.21-0.02 9.12 0 21.99 0.03 26.33 0.04v33.4z" fill="url(#b)"/><path d="m95.85 12.7c8.19 0 19.51 0.02 24.83 0.04v30.32c-8.28-0.63-15.84-3.85-21.53-9.23-5.79-5.47-9.25-12.89-9.92-21.12 1.43-0.01 3.53-0.01 6.62-0.01m0-3c-5.57 0-9.74 0.01-9.74 0.04 0 21.47 16.76 36.42 37.57 36.42v-36.42s-16.7-0.04-27.83-0.04z" fill="#ED7E7E"/><linearGradient id="a" x1="-262.96" x2="-262.96" y1="57.052" y2="-34.285" gradientTransform="translate(286.05)" gradientUnits="userSpaceOnUse"><stop stop-color="#f99" offset="0"/><stop stop-color="#FFB5B5" offset=".4304"/></linearGradient><path d="m5.82 11.24c4.34-0.01 17.21-0.04 26.33-0.04 4.49 0 6.92 0.01 8.21 0.02-0.73 18.69-15.23 32.72-34.54 33.42v-33.4z" fill="url(#a)"/><path d="m32.15 12.7c3.09 0 5.19 0 6.62 0.01-0.67 8.23-4.14 15.64-9.92 21.12-5.69 5.38-13.25 8.6-21.53 9.23v-30.32c5.32-0.02 16.64-0.04 24.83-0.04m0-3c-11.13 0-27.83 0.04-27.83 0.04v36.42c20.81 0 37.57-14.95 37.57-36.42 0-0.03-4.18-0.04-9.74-0.04z" fill="#ED7E7E"/></svg>

<svg width="128" height="128" style="enable-background:new 0 0 128 128;" xmlns="http://www.w3.org/2000/svg" xmlns:xlink="http://www.w3.org/1999/xlink">
  <g id="Layer_2">
    <g>
      <linearGradient id="SVGID_1_" gradientUnits="userSpaceOnUse" x1="64.0002" x2="64.0002" y1="118.5" y2="10.9985">
        <stop offset="1.177226e-03" style="stop-color:#E08787"/>
        <stop offset="0.4304" style="stop-color:#FFB5B5"/>
      </linearGradient>
      <path d="M64,118.5c-34.16,0-53.75-16.8-53.75-46.08c0-15.35,5.12-30.64,14.06-41.97 C31.31,21.57,43.87,11,64,11s32.69,10.57,39.69,19.45c8.94,11.33,14.06,26.63,14.06,41.97C117.75,101.7,98.16,118.5,64,118.5z" style="fill:url(#SVGID_1_);"/>
      <path d="M64,12.5c19.53,0,31.72,10.26,38.51,18.87c8.73,11.07,13.74,26.03,13.74,41.04 c0,14.19-4.56,25.28-13.56,32.95C93.77,112.98,80.39,117,64,117s-29.77-4.02-38.69-11.63c-9-7.67-13.56-18.76-13.56-32.95 c0-15.02,5.01-29.98,13.74-41.04C32.28,22.76,44.47,12.5,64,12.5 M64,9.5C28.69,9.5,8.75,41.9,8.75,72.42S29.31,120,64,120 s55.25-17.07,55.25-47.58S99.31,9.5,64,9.5L64,9.5z" style="fill:#ED7E7E;"/>
    </g>
    <g>
      <ellipse cx="33.28" cy="59.62" rx="9.18" ry="10.39" style="fill:#404040;"/>
      <ellipse cx="94.72" cy="59.62" rx="9.18" ry="10.39" style="fill:#404040;"/>
    </g>
    <g>
      <path d="M64,64.84c-12.77,0-23.11,11.74-23.11,22.99S51.23,105.58,64,105.58s23.11-6.5,23.11-17.75 S76.77,64.84,64,64.84z" style="fill:#EB7070;"/>
      <g>
        <path d="M61.15,87.34c0.02-0.19,0.03-0.37,0.03-0.54s-0.01-0.35-0.03-0.54c-0.13-4.93-1.92-7.82-4.2-8.18 c-0.16-0.05-0.33-0.08-0.5-0.08c-0.17,0-0.33,0.03-0.5,0.08c-2.28,0.37-4.07,3.25-4.2,8.18c-0.02,0.19-0.03,0.37-0.03,0.54 s0.01,0.35,0.03,0.54c0.13,4.93,1.92,7.82,4.2,8.18c0.16,0.05,0.33,0.08,0.5,0.08c0.17,0,0.33-0.03,0.5-0.08 C59.23,95.15,61.02,92.27,61.15,87.34z" style="fill:#404040;"/>
        <path d="M76.24,87.34c0.02-0.19,0.03-0.37,0.03-0.54s-0.01-0.35-0.03-0.54c-0.13-4.93-1.92-7.82-4.2-8.18 c-0.16-0.05-0.33-0.08-0.5-0.08s-0.33,0.03-0.5,0.08c-2.28,0.37-4.07,3.25-4.2,8.18c-0.02,0.19-0.03,0.37-0.03,0.54 s0.01,0.35,0.03,0.54c0.13,4.93,1.92,7.82,4.2,8.18c0.16,0.05,0.33,0.08,0.5,0.08s0.33-0.03,0.5-0.08 C74.32,95.15,76.11,92.27,76.24,87.34z" style="fill:#404040;"/>
      </g>
    </g>
    <g>
      <g>
        <linearGradient id="SVGID_2_" gradientTransform="matrix(-1 0 0 1 -229.917 0)" gradientUnits="userSpaceOnUse" x1="-334.8287" x2="-334.8287" y1="57.0523" y2="-34.2849">
          <stop offset="0" style="stop-color:#FF9999"/>
          <stop offset="0.4304" style="stop-color:#FFB5B5"/>
        </linearGradient>
        <path d="M122.18,44.64c-19.31-0.69-33.82-14.73-34.54-33.42c1.29-0.01,3.72-0.02,8.21-0.02 c9.12,0,21.99,0.03,26.33,0.04V44.64z" style="fill:url(#SVGID_2_);"/>
        <path d="M95.85,12.7c8.19,0,19.51,0.02,24.83,0.04v30.32c-8.28-0.63-15.84-3.85-21.53-9.23 c-5.79-5.47-9.25-12.89-9.92-21.12C90.66,12.7,92.76,12.7,95.85,12.7 M95.85,9.7c-5.57,0-9.74,0.01-9.74,0.04 c0,21.47,16.76,36.42,37.57,36.42V9.74C123.68,9.74,106.98,9.7,95.85,9.7L95.85,9.7z" style="fill:#ED7E7E;"/>
      </g>
      <g>
        <linearGradient id="SVGID_3_" gradientTransform="matrix(1 0 0 1 286.0523 0)" gradientUnits="userSpaceOnUse" x1="-262.9637" x2="-262.9637" y1="57.0523" y2="-34.2849">
          <stop offset="0" style="stop-color:#FF9999"/>
          <stop offset="0.4304" style="stop-color:#FFB5B5"/>
        </linearGradient>
        <path d="M5.82,11.24c4.34-0.01,17.21-0.04,26.33-0.04c4.49,0,6.92,0.01,8.21,0.02 C39.63,29.91,25.13,43.94,5.82,44.64V11.24z" style="fill:url(#SVGID_3_);"/>
        <path d="M32.15,12.7c3.09,0,5.19,0,6.62,0.01c-0.67,8.23-4.14,15.64-9.92,21.12 c-5.69,5.38-13.25,8.6-21.53,9.23V12.74C12.64,12.72,23.96,12.7,32.15,12.7 M32.15,9.7C21.02,9.7,4.32,9.74,4.32,9.74v36.42 c20.81,0,37.57-14.95,37.57-36.42C41.89,9.71,37.71,9.7,32.15,9.7L32.15,9.7z" style="fill:#ED7E7E;"/>
      </g>
    </g>
  </g>
  <g id="Layer_1" style="display:none;">
    <g style="display:inline;">
      <g style="opacity:0.6;">
        <circle cx="64" cy="64" r="28" style="opacity:0.61;fill:none;stroke:#000000;stroke-width:0.2625;stroke-miterlimit:10;"/>
        <line style="opacity:0.61;fill:none;stroke:#000000;stroke-width:0.25;stroke-miterlimit:10;" x1="84" x2="84" y1="0" y2="128"/>
        <line style="opacity:0.61;fill:none;stroke:#000000;stroke-width:0.25;stroke-miterlimit:10;" x1="44" x2="44" y1="0" y2="128"/>
        <line style="opacity:0.61;fill:none;stroke:#000000;stroke-width:0.25;stroke-miterlimit:10;" x1="64" x2="64" y1="0" y2="128"/>
        <line style="opacity:0.61;fill:none;stroke:#000000;stroke-width:0.25;stroke-miterlimit:10;" x1="128" x2="0" y1="64" y2="64"/>
        <line style="opacity:0.61;fill:none;stroke:#000000;stroke-width:0.25;stroke-miterlimit:10;" x1="128" x2="0" y1="44" y2="44"/>
        <line style="opacity:0.61;fill:none;stroke:#000000;stroke-width:0.25;stroke-miterlimit:10;" x1="128" x2="0" y1="83.75" y2="83.75"/>
        <line style="opacity:0.61;fill:none;stroke:#000000;stroke-width:0.25;stroke-miterlimit:10;" x1="128" x2="0" y1="128" y2="0"/>
        <line style="opacity:0.61;fill:none;stroke:#000000;stroke-width:0.25;stroke-miterlimit:10;" x1="0" x2="128" y1="128" y2="0"/>
        <g style="opacity:0.61;">
          <path d="M64,4.26c32.94,0,59.74,26.8,59.74,59.74S96.94,123.74,64,123.74S4.26,96.94,4.26,64S31.06,4.26,64,4.26 M64,4 C30.86,4,4,30.86,4,64s26.86,60,60,60s60-26.86,60-60S97.14,4,64,4L64,4z"/>
        </g>
        <path d="M107.97,115.97H20.03 c-4.42,0-8.03-3.61-8.03-8.03V20.03c0-4.42,3.61-8.03,8.03-8.03h87.94c4.42,0,8.03,3.61,8.03,8.03v87.91 C116,112.36,112.39,115.97,107.97,115.97z" style="opacity:0.61;fill:none;stroke:#000000;stroke-width:0.2578;stroke-miterlimit:10;"/>
        <path d="M100,124H28c-4.4,0-8-3.6-8-8 V12c0-4.4,3.6-8,8-8h72c4.4,0,8,3.6,8,8v104C108,120.4,104.4,124,100,124z" style="opacity:0.61;fill:none;stroke:#000000;stroke-width:0.2628;stroke-miterlimit:10;"/>
        <path d="M113.77,108H14.23 C8.6,108,4,103.4,4,97.77V30.28c0-5.63,4.6-10.23,10.23-10.23h99.54c5.63,0,10.23,4.6,10.23,10.23v67.48 C124,103.4,119.4,108,113.77,108z" style="opacity:0.61;fill:none;stroke:#000000;stroke-width:0.2627;stroke-miterlimit:10;"/>
      </g>
      <g>
        <g style="opacity:0.2;">
          <defs>
            <rect id="SVGID_24_" height="128" style="opacity:0.2;" width="128" x="0" y="0"/>
          </defs>
          <clipPath id="SVGID_4_">
            <use style="overflow:visible;" xlink:href="#SVGID_24_"/>
          </clipPath>
          <g style="clip-path:url(#SVGID_4_);">
            <g>
              <line style="fill:none;stroke:#000000;stroke-width:0.25;stroke-miterlimit:10;" x1="-28" x2="-28" y1="160" y2="-32"/>
              <line style="fill:none;stroke:#000000;stroke-width:0.25;stroke-miterlimit:10;" x1="-24" x2="-24" y1="160" y2="-32"/>
              <line style="fill:none;stroke:#000000;stroke-width:0.25;stroke-miterlimit:10;" x1="-20" x2="-20" y1="160" y2="-32"/>
              <line style="fill:none;stroke:#000000;stroke-width:0.25;stroke-miterlimit:10;" x1="-16" x2="-16" y1="160" y2="-32"/>
              <line style="fill:none;stroke:#000000;stroke-width:0.25;stroke-miterlimit:10;" x1="-12" x2="-12" y1="160" y2="-32"/>
              <line style="fill:none;stroke:#000000;stroke-width:0.25;stroke-miterlimit:10;" x1="-8" x2="-8" y1="160" y2="-32"/>
              <line style="fill:none;stroke:#000000;stroke-width:0.25;stroke-miterlimit:10;" x1="-4" x2="-4" y1="160" y2="-32"/>
              <line style="fill:none;stroke:#000000;stroke-width:0.25;stroke-miterlimit:10;" x1="0" x2="0" y1="160" y2="-32"/>
              <line style="fill:none;stroke:#000000;stroke-width:0.25;stroke-miterlimit:10;" x1="4" x2="4" y1="160" y2="-32"/>
              <line style="fill:none;stroke:#000000;stroke-width:0.25;stroke-miterlimit:10;" x1="8" x2="8" y1="160" y2="-32"/>
              <line style="fill:none;stroke:#000000;stroke-width:0.25;stroke-miterlimit:10;" x1="12" x2="12" y1="160" y2="-32"/>
              <line style="fill:none;stroke:#000000;stroke-width:0.25;stroke-miterlimit:10;" x1="16" x2="16" y1="160" y2="-32"/>
              <line style="fill:none;stroke:#000000;stroke-width:0.25;stroke-miterlimit:10;" x1="20" x2="20" y1="160" y2="-32"/>
              <line style="fill:none;stroke:#000000;stroke-width:0.25;stroke-miterlimit:10;" x1="24" x2="24" y1="160" y2="-32"/>
              <line style="fill:none;stroke:#000000;stroke-width:0.25;stroke-miterlimit:10;" x1="28" x2="28" y1="160" y2="-32"/>
              <line style="fill:none;stroke:#000000;stroke-width:0.25;stroke-miterlimit:10;" x1="32" x2="32" y1="160" y2="-32"/>
              <line style="fill:none;stroke:#000000;stroke-width:0.25;stroke-miterlimit:10;" x1="36" x2="36" y1="160" y2="-32"/>
              <line style="fill:none;stroke:#000000;stroke-width:0.25;stroke-miterlimit:10;" x1="40" x2="40" y1="160" y2="-32"/>
              <line style="fill:none;stroke:#000000;stroke-width:0.25;stroke-miterlimit:10;" x1="44" x2="44" y1="160" y2="-32"/>
              <line style="fill:none;stroke:#000000;stroke-width:0.25;stroke-miterlimit:10;" x1="48" x2="48" y1="160" y2="-32"/>
              <line style="fill:none;stroke:#000000;stroke-width:0.25;stroke-miterlimit:10;" x1="52" x2="52" y1="160" y2="-32"/>
              <line style="fill:none;stroke:#000000;stroke-width:0.25;stroke-miterlimit:10;" x1="56" x2="56" y1="160" y2="-32"/>
              <line style="fill:none;stroke:#000000;stroke-width:0.25;stroke-miterlimit:10;" x1="60" x2="60" y1="160" y2="-32"/>
              <line style="fill:none;stroke:#000000;stroke-width:0.25;stroke-miterlimit:10;" x1="64" x2="64" y1="160" y2="-32"/>
              <line style="fill:none;stroke:#000000;stroke-width:0.25;stroke-miterlimit:10;" x1="68" x2="68" y1="160" y2="-32"/>
              <line style="fill:none;stroke:#000000;stroke-width:0.25;stroke-miterlimit:10;" x1="72" x2="72" y1="160" y2="-32"/>
              <line style="fill:none;stroke:#000000;stroke-width:0.25;stroke-miterlimit:10;" x1="76" x2="76" y1="160" y2="-32"/>
              <line style="fill:none;stroke:#000000;stroke-width:0.25;stroke-miterlimit:10;" x1="80" x2="80" y1="160" y2="-32"/>
              <line style="fill:none;stroke:#000000;stroke-width:0.25;stroke-miterlimit:10;" x1="84" x2="84" y1="160" y2="-32"/>
              <line style="fill:none;stroke:#000000;stroke-width:0.25;stroke-miterlimit:10;" x1="88" x2="88" y1="160" y2="-32"/>
              <line style="fill:none;stroke:#000000;stroke-width:0.25;stroke-miterlimit:10;" x1="92" x2="92" y1="160" y2="-32"/>
              <line style="fill:none;stroke:#000000;stroke-width:0.25;stroke-miterlimit:10;" x1="96" x2="96" y1="160" y2="-32"/>
              <line style="fill:none;stroke:#000000;stroke-width:0.25;stroke-miterlimit:10;" x1="100" x2="100" y1="160" y2="-32"/>
              <line style="fill:none;stroke:#000000;stroke-width:0.25;stroke-miterlimit:10;" x1="104" x2="104" y1="160" y2="-32"/>
              <line style="fill:none;stroke:#000000;stroke-width:0.25;stroke-miterlimit:10;" x1="108" x2="108" y1="160" y2="-32"/>
              <line style="fill:none;stroke:#000000;stroke-width:0.25;stroke-miterlimit:10;" x1="112" x2="112" y1="160" y2="-32"/>
              <line style="fill:none;stroke:#000000;stroke-width:0.25;stroke-miterlimit:10;" x1="116" x2="116" y1="160" y2="-32"/>
              <line style="fill:none;stroke:#000000;stroke-width:0.25;stroke-miterlimit:10;" x1="120" x2="120" y1="160" y2="-32"/>
              <line style="fill:none;stroke:#000000;stroke-width:0.25;stroke-miterlimit:10;" x1="124" x2="124" y1="160" y2="-32"/>
              <line style="fill:none;stroke:#000000;stroke-width:0.25;stroke-miterlimit:10;" x1="128" x2="128" y1="160" y2="-32"/>
              <line style="fill:none;stroke:#000000;stroke-width:0.25;stroke-miterlimit:10;" x1="132" x2="132" y1="160" y2="-32"/>
              <line style="fill:none;stroke:#000000;stroke-width:0.25;stroke-miterlimit:10;" x1="136" x2="136" y1="160" y2="-32"/>
              <line style="fill:none;stroke:#000000;stroke-width:0.25;stroke-miterlimit:10;" x1="137" x2="137" y1="166.05" y2="-25.95"/>
              <line style="fill:none;stroke:#000000;stroke-width:0.25;stroke-miterlimit:10;" x1="144" x2="144" y1="160" y2="-32"/>
              <line style="fill:none;stroke:#000000;stroke-width:0.25;stroke-miterlimit:10;" x1="148" x2="148" y1="160" y2="-32"/>
              <line style="fill:none;stroke:#000000;stroke-width:0.25;stroke-miterlimit:10;" x1="152" x2="152" y1="160" y2="-32"/>
              <line style="fill:none;stroke:#000000;stroke-width:0.25;stroke-miterlimit:10;" x1="156" x2="156" y1="160" y2="-32"/>
            </g>
            <g>
              <line style="fill:none;stroke:#000000;stroke-width:0.25;stroke-miterlimit:10;" x1="-32" x2="160" y1="-28" y2="-28"/>
              <line style="fill:none;stroke:#000000;stroke-width:0.25;stroke-miterlimit:10;" x1="-32" x2="160" y1="-24" y2="-24"/>
              <line style="fill:none;stroke:#000000;stroke-width:0.25;stroke-miterlimit:10;" x1="-32" x2="160" y1="-20" y2="-20"/>
              <line style="fill:none;stroke:#000000;stroke-width:0.25;stroke-miterlimit:10;" x1="-32" x2="160" y1="-16" y2="-16"/>
              <line style="fill:none;stroke:#000000;stroke-width:0.25;stroke-miterlimit:10;" x1="-32" x2="160" y1="-12" y2="-12"/>
              <line style="fill:none;stroke:#000000;stroke-width:0.25;stroke-miterlimit:10;" x1="-32" x2="160" y1="-8" y2="-8"/>
              <line style="fill:none;stroke:#000000;stroke-width:0.25;stroke-miterlimit:10;" x1="-32" x2="160" y1="-4" y2="-4"/>
              <line style="fill:none;stroke:#000000;stroke-width:0.25;stroke-miterlimit:10;" x1="-32" x2="160" y1="0" y2="0"/>
              <line style="fill:none;stroke:#000000;stroke-width:0.25;stroke-miterlimit:10;" x1="-32" x2="160" y1="4" y2="4"/>
              <line style="fill:none;stroke:#000000;stroke-width:0.25;stroke-miterlimit:10;" x1="-32" x2="160" y1="8" y2="8"/>
              <line style="fill:none;stroke:#000000;stroke-width:0.25;stroke-miterlimit:10;" x1="-32" x2="160" y1="12" y2="12"/>
              <line style="fill:none;stroke:#000000;stroke-width:0.25;stroke-miterlimit:10;" x1="-32" x2="160" y1="16" y2="16"/>
              <line style="fill:none;stroke:#000000;stroke-width:0.25;stroke-miterlimit:10;" x1="-32" x2="160" y1="20" y2="20"/>
              <line style="fill:none;stroke:#000000;stroke-width:0.25;stroke-miterlimit:10;" x1="-32" x2="160" y1="24" y2="24"/>
              <line style="fill:none;stroke:#000000;stroke-width:0.25;stroke-miterlimit:10;" x1="-32" x2="160" y1="28" y2="28"/>
              <line style="fill:none;stroke:#000000;stroke-width:0.25;stroke-miterlimit:10;" x1="-32" x2="160" y1="32" y2="32"/>
              <line style="fill:none;stroke:#000000;stroke-width:0.25;stroke-miterlimit:10;" x1="-32" x2="160" y1="36" y2="36"/>
              <line style="fill:none;stroke:#000000;stroke-width:0.25;stroke-miterlimit:10;" x1="-32" x2="160" y1="40" y2="40"/>
              <line style="fill:none;stroke:#000000;stroke-width:0.25;stroke-miterlimit:10;" x1="-32" x2="160" y1="44" y2="44"/>
              <line style="fill:none;stroke:#000000;stroke-width:0.25;stroke-miterlimit:10;" x1="-32" x2="160" y1="48" y2="48"/>
              <line style="fill:none;stroke:#000000;stroke-width:0.25;stroke-miterlimit:10;" x1="-32" x2="160" y1="52" y2="52"/>
              <line style="fill:none;stroke:#000000;stroke-width:0.25;stroke-miterlimit:10;" x1="-32" x2="160" y1="56" y2="56"/>
              <line style="fill:none;stroke:#000000;stroke-width:0.25;stroke-miterlimit:10;" x1="-32" x2="160" y1="60" y2="60"/>
              <line style="fill:none;stroke:#000000;stroke-width:0.25;stroke-miterlimit:10;" x1="-32" x2="160" y1="64" y2="64"/>
              <line style="fill:none;stroke:#000000;stroke-width:0.25;stroke-miterlimit:10;" x1="-32" x2="160" y1="68" y2="68"/>
              <line style="fill:none;stroke:#000000;stroke-width:0.25;stroke-miterlimit:10;" x1="-32" x2="160" y1="72" y2="72"/>
              <line style="fill:none;stroke:#000000;stroke-width:0.25;stroke-miterlimit:10;" x1="-32" x2="160" y1="76" y2="76"/>
              <line style="fill:none;stroke:#000000;stroke-width:0.25;stroke-miterlimit:10;" x1="-32" x2="160" y1="80" y2="80"/>
              <line style="fill:none;stroke:#000000;stroke-width:0.25;stroke-miterlimit:10;" x1="-32" x2="160" y1="84" y2="84"/>
              <line style="fill:none;stroke:#000000;stroke-width:0.25;stroke-miterlimit:10;" x1="-32" x2="160" y1="88" y2="88"/>
              <line style="fill:none;stroke:#000000;stroke-width:0.25;stroke-miterlimit:10;" x1="-32" x2="160" y1="92" y2="92"/>
              <line style="fill:none;stroke:#000000;stroke-width:0.25;stroke-miterlimit:10;" x1="-32" x2="160" y1="96" y2="96"/>
              <line style="fill:none;stroke:#000000;stroke-width:0.25;stroke-miterlimit:10;" x1="-32" x2="160" y1="100" y2="100"/>
              <line style="fill:none;stroke:#000000;stroke-width:0.25;stroke-miterlimit:10;" x1="-32" x2="160" y1="104" y2="104"/>
              <line style="fill:none;stroke:#000000;stroke-width:0.25;stroke-miterlimit:10;" x1="-32" x2="160" y1="108" y2="108"/>
              <line style="fill:none;stroke:#000000;stroke-width:0.25;stroke-miterlimit:10;" x1="-32" x2="160" y1="112" y2="112"/>
              <line style="fill:none;stroke:#000000;stroke-width:0.25;stroke-miterlimit:10;" x1="-32" x2="160" y1="116" y2="116"/>
              <line style="fill:none;stroke:#000000;stroke-width:0.25;stroke-miterlimit:10;" x1="-32" x2="160" y1="120" y2="120"/>
              <line style="fill:none;stroke:#000000;stroke-width:0.25;stroke-miterlimit:10;" x1="-32" x2="160" y1="124" y2="124"/>
              <line style="fill:none;stroke:#000000;stroke-width:0.25;stroke-miterlimit:10;" x1="-32" x2="160" y1="128" y2="128"/>
              <line style="fill:none;stroke:#000000;stroke-width:0.25;stroke-miterlimit:10;" x1="-32" x2="160" y1="132" y2="132"/>
              <line style="fill:none;stroke:#000000;stroke-width:0.25;stroke-miterlimit:10;" x1="-32" x2="160" y1="136" y2="136"/>
              <line style="fill:none;stroke:#000000;stroke-width:0.25;stroke-miterlimit:10;" x1="-32" x2="160" y1="140" y2="140"/>
              <line style="fill:none;stroke:#000000;stroke-width:0.25;stroke-miterlimit:10;" x1="-32" x2="160" y1="144" y2="144"/>
              <line style="fill:none;stroke:#000000;stroke-width:0.25;stroke-miterlimit:10;" x1="-32" x2="160" y1="148" y2="148"/>
              <line style="fill:none;stroke:#000000;stroke-width:0.25;stroke-miterlimit:10;" x1="-32" x2="160" y1="152" y2="152"/>
              <line style="fill:none;stroke:#000000;stroke-width:0.25;stroke-miterlimit:10;" x1="-32" x2="160" y1="156" y2="156"/>
            </g>
            <path d="M159.75-31.75v191.5h-191.5v-191.5H159.75 M160-32H-32v192h192V-32L160-32z"/>
          </g>
        </g>
        <g>
          <rect height="128" style="opacity:0.3;fill:#F44336;" width="4" x="0" y="0"/>
          <rect height="128" style="opacity:0.3;fill:#F44336;" width="4" x="124" y="0"/>
          <rect height="120" style="opacity:0.3;fill:#F44336;" transform="matrix(-1.836970e-16 1 -1 -1.836970e-16 66 -62)" width="4" x="62" y="-58"/>
          <rect height="120" style="opacity:0.3;fill:#F44336;" transform="matrix(-1.836970e-16 1 -1 -1.836970e-16 190 62)" width="4" x="62" y="66"/>
        </g>
      </g>
    </g>
  </g>
</svg>
